icons/taze.svg

<svg width="16" height="16" viewBox="0 0 16 16" fill="none" xmlns="http://www.w3.org/2000/svg">
<path fill-rule="evenodd" clip-rule="evenodd" d="M2.26354 12.75C3.24816 14.15 3.90457 14.5 4.1097 14.5C4.54609 14.0036 5.27956 13.2749 6.16791 12.5655C7.0601 11.853 7.83189 11.7592 8.75072 11.6477C9.06724 11.6092 9.4012 11.5687 9.76354 11.5C8.79074 10.9467 8.58684 10.206 8.38742 9.48159C8.08224 8.37294 7.78754 7.3024 4.76354 7C4.67713 7.21843 4.64931 7.45227 4.6448 7.69434L4.26354 9.92384C3.68456 10.6222 3.00713 11.4849 2.26354 12.75ZM5.26354 9L4.76354 11.5L7.26354 8L5.26354 9ZM7.76354 9L5.26354 12L7.76354 11V9Z" fill="#79E78B"/>
<path d="M4.08976 4.08624C4.83248 4.14638 5.32702 4.51628 5.57227 4.76154C5.33023 4.05489 4.91831 3.43432 4.46734 2.93385C5.04058 1.9533 6.19276 1.36244 7.5089 1.50377C8.26595 1.58506 8.96071 1.89609 9.51671 2.35499C9.83692 2.18809 10.2063 2.11261 10.5982 2.15468C11.7905 2.28272 12.739 3.4508 12.7167 4.76366C12.7127 4.99368 12.6793 5.21288 12.6203 5.4173C12.0585 5.4681 11.4766 5.66181 10.9486 6.08556C11.4765 5.9441 12.082 6.09179 12.6548 6.40662C13.3783 6.98813 13.8392 7.84669 13.8237 8.75724C13.803 9.972 12.9406 10.9128 11.7605 11.156C11.5362 10.6207 11.1625 10.1101 10.5744 9.73178C10.8916 10.211 10.9329 10.8729 10.7921 11.551C10.3223 12.2784 9.51998 12.707 8.6174 12.61C7.20216 12.4581 6.07641 11.0717 6.10296 9.51343C6.10765 9.23774 6.14811 8.97514 6.21936 8.73046C5.78627 8.99324 5.25294 9.11899 4.67873 9.05734C3.25954 8.90494 2.12807 7.66545 2.15152 6.28886C2.17113 5.13794 2.99182 4.25557 4.08976 4.08624Z" fill="#49A958"/>
</svg>

<svg xmlns="http://www.w3.org/2000/svg" width="16" height="16" fill="none"><path fill="#79E78B" fill-rule="evenodd" d="M2.264 12.75c.984 1.4 1.64 1.75 1.846 1.75a16.988 16.988 0 0 1 2.058-1.934c.892-.713 1.664-.807 2.583-.918.316-.039.65-.08 1.013-.148-.973-.553-1.177-1.294-1.377-2.018-.305-1.11-.6-2.18-3.623-2.482a1.968 1.968 0 0 0-.12.694l-.38 2.23a20.437 20.437 0 0 0-2 2.826Zm3-3.75-.5 2.5 2.5-3.5-2 1Zm2.5 0-2.5 3 2.5-1V9Z" clip-rule="evenodd"/><path fill="#49A958" d="M4.09 4.086c.742.06 1.237.43 1.482.676-.242-.707-.654-1.328-1.105-1.828.574-.98 1.726-1.572 3.042-1.43a3.8 3.8 0 0 1 2.008.851c.32-.167.69-.242 1.081-.2 1.192.128 2.141 1.296 2.119 2.609-.004.23-.038.449-.097.653a3.072 3.072 0 0 0-1.671.669c.527-.142 1.133.006 1.706.32.723.582 1.184 1.44 1.169 2.351-.021 1.215-.883 2.156-2.063 2.399a3.079 3.079 0 0 0-1.187-1.424c.318.479.359 1.14.218 1.819-.47.727-1.272 1.156-2.175 1.059-1.415-.152-2.54-1.538-2.514-3.097.005-.275.045-.538.116-.783a2.448 2.448 0 0 1-1.54.327c-1.42-.152-2.55-1.392-2.527-2.768.02-1.151.84-2.033 1.938-2.203Z"/></svg>
